korla/apps/symbolic/accessories-screenshot-symbolic.svg

<svg style="clip-rule:evenodd;fill-rule:evenodd;stroke-linejoin:round;stroke-miterlimit:2" version="1.1" viewBox="0 0 16 16" xmlns="http://www.w3.org/2000/svg">
 <path d="m2 0c-2 0-2 2-2 2v9s0 2 2 2h1l0.06-1.099h-1.893v-10.822h13.666v5.907l1.167 0.014v-5s0-2-2-2h-12z" style="fill-rule:nonzero;fill:rgb(223,223,223)"/>
 <path d="m8.03 7-1 1h-2.03c-0.47 0.06-1 0.54-1 1v6c0 0.46 0.53 1 1 1h10c0.47 0 1-0.54 1-1v-6c0-0.46-0.53-1-1-1h-1.97l-1-1h-4zm1.97 2c1.66 0 3 1.34 3 3 0 1.65-1.34 3-3 3s-3-1.35-3-3c0-1.66 1.34-3 3-3z" style="fill-opacity:.5;fill:rgb(223,223,223)"/>
 <path d="m10 9.702c-1.264 0-2.298 1.023-2.298 2.298 0 1.264 1.034 2.298 2.298 2.298 1.275 0 2.298-1.034 2.298-2.298 0-1.275-1.023-2.298-2.298-2.298z" style="fill:rgb(223,223,223)"/>
</svg>

<svg xmlns="http://www.w3.org/2000/svg" width="16" height="16" version="1.1">
 <path style="fill:#dfdfdf" d="M 2,0 C 0,0 0,2 0,2 V 11 C 0,11 0,13 2,13 H 3 V 10.98 H 2 V 2 H 14 V 7 H 16 V 2 C 16,2 16,0 14,0 Z"/>
 <path style="fill:#dfdfdf" d="M 8.03,7 7.03,8 H 5 C 4.53,8.06 4,8.54 4,9 V 15 C 4,15.46 4.53,16 5,16 H 15 C 15.47,16 16,15.46 16,15 V 9 C 16,8.54 15.47,8 15,8 H 13.03 L 12.03,7 Z M 10,9 C 11.66,9 13,10.34 13,12 13,13.65 11.66,15 10,15 8.34,15 7,13.65 7,12 7,10.34 8.34,9 10,9 Z M 10,10 C 8.9,10 8,10.89 8,12 8,13.1 8.9,14 10,14 11.11,14 12,13.1 12,12 12,10.89 11.11,10 10,10 Z"/>
</svg>
